Suru++-Ubuntu/apps/scalable/wallpapoz.svg

<svg width="256" height="256" version="1.1" viewBox="0 0 256 256" xmlns="http://www.w3.org/2000/svg" xmlns:xlink="http://www.w3.org/1999/xlink">
 <defs>
  <linearGradient id="linearGradient1108" x1="296" x2="296" y1="-212" y2="236" gradientUnits="userSpaceOnUse">
   <stop style="stop-color:#ffffff" offset="0"/>
   <stop style="stop-color:#ffffff;stop-opacity:.09803922" offset=".125"/>
   <stop style="stop-color:#000000;stop-opacity:.09803922" offset=".925"/>
   <stop style="stop-color:#000000;stop-opacity:.49803922" offset="1"/>
  </linearGradient>
  <clipPath id="clipPath1082-3-361">
   <path d="M 361.9375,-212 C 507.2348,-212 528,-191.28677 528,-46.125 V 70.125 C 528,215.28618 507.2348,236 361.9375,236 H 214.0625 C 68.7652,236 48,215.28618 48,70.125 V -46.125 C 48,-191.28677 68.7652,-212 214.0625,-212 Z" style="fill:#8c59d9"/>
  </clipPath>
  <filter id="filter4569" x="-.01" y="-.01" width="1.023" height="1.025" style="color-interpolation-filters:sRGB">
   <feGaussianBlur stdDeviation="1.16"/>
  </filter>
  <filter id="filter939" x="-.02" y="-.03" width="1.046" height="1.05" style="color-interpolation-filters:sRGB">
   <feGaussianBlur stdDeviation="2.32"/>
  </filter>
  <filter id="filter1619" x="-.04" y="-.05" width="1.089" height="1.104" style="color-interpolation-filters:sRGB">
   <feGaussianBlur stdDeviation="3.115"/>
  </filter>
 </defs>
 <path transform="matrix(1.019368,0,0,1.019368,-7.2181772e-8,8.3098661)" d="m162.53675 5.5680001c72.64865 0 83.03125 10.356615 83.03125 82.937505v58.125005c0 72.58059-10.3826 82.9375-83.03125 82.9375h-73.937496c-72.648654 0-83.031254-10.35691-83.031254-82.9375v-58.125005c0-72.58089 10.3826-82.937505 83.031254-82.937505z" style="filter:url(#filter939);opacity:.2"/>
 <path d="m165.68477 11.946967c74.05571 0 84.6394 10.557203 84.6394 84.543835v59.250778c0 73.98633-10.58369 84.54383-84.6394 84.54383h-75.369521c-74.055717 0-84.639408-10.5575-84.639408-84.54383v-59.250778c0-73.986632 10.583691-84.543835 84.639408-84.543835z" style="fill:none;opacity:.1;stroke-linecap:round;stroke-linejoin:round;stroke-width:4.0774717;stroke:#000000"/>
 <path transform="matrix(1.019368,0,0,1.019368,-7.2181772e-8,8.3098661)" d="m162.53675 3.5680001c72.64865 0 83.03125 10.356615 83.03125 82.937505v58.125005c0 72.58059-10.3826 82.9375-83.03125 82.9375h-73.937496c-72.648654 0-83.031254-10.35691-83.031254-82.9375v-58.125005c0-72.58089 10.3826-82.937505 83.031254-82.937505z" style="filter:url(#filter4569);opacity:.1"/>
 <g transform="matrix(1.09375,0,0,1.1069557,-12.281467,-14.751738)">
  <path transform="matrix(.91428571 0 0 .90337852 11.22877 13.326403)" d="m247.86719 197.75781c0.36058-2.17586 0.72375-4.34248 0.99219-6.74023 0.36426-3.25371 0.64821-6.71569 0.86523-10.40039 0.43404-7.36941 0.59961-15.62671 0.59961-24.875v-59.251956c0-9.248329-0.16557-17.505574-0.59961-24.875-0.21702-3.684712-0.50097-7.146679-0.86523-10.40039-0.24993-2.232395-0.59434-4.235641-0.92383-6.275391l-120.65821 71.423827 120.58985 71.39453z" style="fill:#f05353"/>
  <path transform="matrix(.91428571 0 0 .90337852 11.22877 13.326403)" d="m8.0175781 196.97461c0.1653024 1.04152 0.2813811 2.19617 0.46875 3.18945 0.5373354 2.84853 1.1680667 5.50155 1.9042969 7.97071 0.73623 2.46915 1.578113 4.75548 2.539063 6.87109 0.960949 2.11561 2.04046 4.05978 3.251953 5.84766 1.211493 1.78787 2.555108 3.41833 4.042968 4.90429 1.487861 1.48596 3.120103 2.82725 4.910157 4.03711 1.790053 1.20986 3.737399 2.28848 5.855468 3.24805 2.11807 0.95957 4.406996 1.80005 6.878907 2.53515 2.471911 0.73511 5.126939 1.3659 7.978515 1.90235 2.851577 0.53645 5.899184 0.98013 9.15625 1.34375 3.257066 0.36361 6.723729 0.64669 10.41211 0.86328 7.37676 0.43319 15.641473 0.59766 24.898437 0.59766h36.962887v-113.92188l-119.25976 70.61133z" style="fill:#5fcad6"/>
  <path transform="matrix(.91428571 0 0 .90337852 11.22877 13.326403)" d="m127.27734 240.28516h38.40821c9.25696 0 17.52167-0.16447 24.89843-0.59766 3.68838-0.21659 7.15505-0.49967 10.41211-0.86328 3.25707-0.36362 6.30468-0.8073 9.15625-1.34375 2.85158-0.53645 5.50661-1.16724 7.97852-1.90235 2.47191-0.7351 4.76084-1.57558 6.87891-2.53515s4.06541-2.03819 5.85546-3.24805c1.79006-1.20986 3.4223-2.55115 4.91016-4.03711s2.83148-3.11642 4.04297-4.90429c1.21149-1.78788 2.291-3.73205 3.25195-5.84766s1.80283-4.40194 2.53907-6.87109c0.73623-2.46916 1.36696-5.12218 1.90429-7.97071 0.14136-0.74936 0.2248-1.6295 0.35352-2.40625l-120.58985-71.39453v113.92188z" style="fill:#5c6cd9"/>
  <path transform="matrix(.91428571 0 0 .90337852 11.22877 13.326403)" d="m8.1777344 54.167969c-0.3816228 2.264552-0.756461 4.540048-1.0371094 7.046875-0.364265 3.253711-0.6482154 6.715678-0.8652344 10.40039-0.4340378 7.369426-0.5996094 15.626671-0.5996094 24.875v59.251956c0 9.24829 0.1655716 17.50559 0.5996094 24.875 0.217019 3.6847 0.5009694 7.14668 0.8652344 10.40039 0.2373219 2.11982 0.5680791 4.01306 0.8769531 5.95898l120.70508-71.45312-120.54493-71.355471z" style="fill:#7c9446"/>
  <path transform="matrix(.91428571 0 0 .90337852 11.22877 13.326403)" d="m247.93555 54.939453c-0.15074-0.933182-0.25321-1.976962-0.42188-2.871094-0.53733-2.848527-1.16806-5.501544-1.90429-7.970703-0.73624-2.469159-1.57812-4.755486-2.53907-6.871094-0.96095-2.115607-2.04046-4.059783-3.25195-5.847656-1.21149-1.787872-2.55511-3.418343-4.04297-4.904297-1.48786-1.485953-3.1201-2.827257-4.91016-4.037109-1.79005-1.209852-3.73739-2.288481-5.85546-3.248047s-4.407-1.800059-6.87891-2.535156-5.12694-1.365899-7.97852-1.902344c-2.85157-0.536445-5.89918-0.980141-9.15625-1.34375-3.25706-0.363609-6.72373-0.646692-10.41211-0.863281-7.37676-0.433179-15.64147-0.597656-24.89843-0.597656h-36.96289v113.57617l119.21289-70.583987z" style="fill:#bb53e2"/>
  <path transform="matrix(.91428571 0 0 .90337852 11.22877 13.326403)" d="m128.72266 11.947266h-38.408207c-9.256964 0-17.521677 0.164477-24.898437 0.597656-3.688381 0.216589-7.155044 0.499672-10.41211 0.863281s-6.304673 0.807305-9.15625 1.34375c-2.851576 0.536445-5.506604 1.167247-7.978515 1.902344s-4.760837 1.57559-6.878907 2.535156c-2.118069 0.959566-4.065415 2.038195-5.855468 3.248047-1.790054 1.209852-3.422296 2.551156-4.910157 4.037109-1.48786 1.485954-2.831475 3.116425-4.042968 4.904297-1.211493 1.787873-2.291004 3.732049-3.251953 5.847656-0.96095 2.115608-1.802833 4.401935-2.539063 6.871094-0.7362302 2.469159-1.3669615 5.122176-1.9042969 7.970703-0.1233446 0.653876-0.1948928 1.424908-0.3085937 2.09961l120.54493 71.355471v-113.57617z" style="fill:#ffc540"/>
 </g>
 <path transform="matrix(.50968403 0 0 .50968403 -18.788999 120)" d="M 361.9375,-212 C 507.2348,-212 528,-191.28677 528,-46.125 V 70.125 C 528,215.28618 507.2348,236 361.9375,236 H 214.0625 C 68.7652,236 48,215.28618 48,70.125 V -46.125 C 48,-191.28677 68.7652,-212 214.0625,-212 Z" clip-path="url(#clipPath1082-3-361)" style="fill:none;opacity:.4;stroke-linecap:round;stroke-linejoin:round;stroke-width:8;stroke:url(#linearGradient1108)"/>
 <path d="m61.845703 54.210938a17.948795 17.948795 0 0 0-16.794922 23.496093l33.330078 107.68164a17.948795 17.948795 0 0 0 34.326171-0.125l15.29297-50.70898 15.29297 50.70898a17.948795 17.948795 0 0 0 34.32617 0.125l33.33008-107.68164a17.948795 17.948795 0 1 0-34.28711-10.613281l-15.96289 51.57227-15.51758-51.449223a17.948795 17.948795 0 0 0-34.36328 0l-15.517579 51.449223-15.96289-51.57227a17.948795 17.948795 0 0 0-17.492188-12.882812z" style="fill:#3f3f3f;filter:url(#filter1619);opacity:.3"/>
 <path d="M 62.194334,72.399503 95.524487,180.08152 128,72.399503 160.47553,180.08152 193.80567,72.399503 v 0" style="fill:none;stroke-linecap:round;stroke-linejoin:round;stroke-width:35.894001;stroke:#5a5a5a"/>
</svg>

<svg xmlns="http://www.w3.org/2000/svg" xmlns:xlink="http://www.w3.org/1999/xlink" width="256" height="256" version="1.1" viewBox="0 0 256 256">
 <defs>
  <linearGradient id="linearGradient1108" x1="296" x2="296" y1="-212" y2="236" gradientUnits="userSpaceOnUse" xlink:href="#linearGradient1013"/>
  <linearGradient id="linearGradient1013">
   <stop style="stop-color:#ffffff" offset="0"/>
   <stop offset=".125" style="stop-color:#ffffff;stop-opacity:0.09803922"/>
   <stop offset=".925" style="stop-color:#000000;stop-opacity:0.09803922"/>
   <stop style="stop-color:#000000;stop-opacity:0.49803922" offset="1"/>
  </linearGradient>
  <clipPath id="clipPath1082-3-361" clipPathUnits="userSpaceOnUse">
   <path style="fill:#8c59d9" d="M 361.9375,-212 C 507.2348,-212 528,-191.28677 528,-46.125 V 70.125 C 528,215.28618 507.2348,236 361.9375,236 H 214.0625 C 68.7652,236 48,215.28618 48,70.125 V -46.125 C 48,-191.28677 68.7652,-212 214.0625,-212 Z"/>
  </clipPath>
  <filter id="filter4569" width="1.023" height="1.025" x="-.01" y="-.01" style="color-interpolation-filters:sRGB">
   <feGaussianBlur stdDeviation="1.16"/>
  </filter>
  <filter id="filter939" width="1.046" height="1.05" x="-.02" y="-.03" style="color-interpolation-filters:sRGB">
   <feGaussianBlur stdDeviation="2.32"/>
  </filter>
  <filter id="filter1619" width="1.089" height="1.104" x="-.04" y="-.05" style="color-interpolation-filters:sRGB">
   <feGaussianBlur stdDeviation="3.115"/>
  </filter>
 </defs>
 <path d="m 162.53675,5.5680001 c 72.64865,0 83.03125,10.3566149 83.03125,82.9375049 v 58.125005 c 0,72.58059 -10.3826,82.9375 -83.03125,82.9375 H 88.599254 C 15.9506,229.56801 5.568,219.2111 5.568,146.63051 V 88.505505 c 0,-72.58089 10.3826,-82.9375049 83.031254,-82.9375049 z" transform="matrix(1.019368,0,0,1.019368,-7.2181772e-8,8.3098661)" style="opacity:0.2;filter:url(#filter939)"/>
 <path style="opacity:0.1;fill:none;stroke:#000000;stroke-width:4.07747173;stroke-linecap:round;stroke-linejoin:round" d="m 165.68477,11.946967 c 74.05571,0 84.6394,10.557203 84.6394,84.543835 v 59.250778 c 0,73.98633 -10.58369,84.54383 -84.6394,84.54383 H 90.315249 c -74.055717,0 -84.6394076,-10.5575 -84.6394076,-84.54383 V 96.490802 c 0,-73.986632 10.5836906,-84.543835 84.6394076,-84.543835 z"/>
 <path style="opacity:0.1;filter:url(#filter4569)" d="m 162.53675,3.5680001 c 72.64865,0 83.03125,10.3566149 83.03125,82.9375049 v 58.125005 c 0,72.58059 -10.3826,82.9375 -83.03125,82.9375 H 88.599254 C 15.9506,227.56801 5.568,217.2111 5.568,144.63051 V 86.505505 c 0,-72.58089 10.3826,-82.9375049 83.031254,-82.9375049 z" transform="matrix(1.019368,0,0,1.019368,-7.2181772e-8,8.3098661)"/>
 <g transform="matrix(1.09375,0,0,1.1069557,-12.281467,-14.751738)">
  <path d="M 247.86719 197.75781 C 248.22777 195.58195 248.59094 193.41533 248.85938 191.01758 C 249.22364 187.76387 249.50759 184.30189 249.72461 180.61719 C 250.15865 173.24778 250.32422 164.99048 250.32422 155.74219 L 250.32422 96.490234 C 250.32422 87.241905 250.15865 78.98466 249.72461 71.615234 C 249.50759 67.930522 249.22364 64.468555 248.85938 61.214844 C 248.60945 58.982449 248.26504 56.979203 247.93555 54.939453 L 127.27734 126.36328 L 247.86719 197.75781 z" transform="matrix(0.91428571,0,0,0.90337852,11.22877,13.326403)" style="fill:#f05353"/>
  <path d="M 8.0175781 196.97461 C 8.1828805 198.01613 8.2989592 199.17078 8.4863281 200.16406 C 9.0236635 203.01259 9.6543948 205.66561 10.390625 208.13477 C 11.126855 210.60392 11.968738 212.89025 12.929688 215.00586 C 13.890637 217.12147 14.970148 219.06564 16.181641 220.85352 C 17.393134 222.64139 18.736749 224.27185 20.224609 225.75781 C 21.71247 227.24377 23.344712 228.58506 25.134766 229.79492 C 26.924819 231.00478 28.872165 232.0834 30.990234 233.04297 C 33.108304 234.00254 35.39723 234.84302 37.869141 235.57812 C 40.341052 236.31323 42.99608 236.94402 45.847656 237.48047 C 48.699233 238.01692 51.74684 238.4606 55.003906 238.82422 C 58.260972 239.18783 61.727635 239.47091 65.416016 239.6875 C 72.792776 240.12069 81.057489 240.28516 90.314453 240.28516 L 127.27734 240.28516 L 127.27734 126.36328 L 8.0175781 196.97461 z" transform="matrix(0.91428571,0,0,0.90337852,11.22877,13.326403)" style="fill:#5fcad6"/>
  <path d="M 127.27734 240.28516 L 165.68555 240.28516 C 174.94251 240.28516 183.20722 240.12069 190.58398 239.6875 C 194.27236 239.47091 197.73903 239.18783 200.99609 238.82422 C 204.25316 238.4606 207.30077 238.01692 210.15234 237.48047 C 213.00392 236.94402 215.65895 236.31323 218.13086 235.57812 C 220.60277 234.84302 222.8917 234.00254 225.00977 233.04297 C 227.12784 232.0834 229.07518 231.00478 230.86523 229.79492 C 232.65529 228.58506 234.28753 227.24377 235.77539 225.75781 C 237.26325 224.27185 238.60687 222.64139 239.81836 220.85352 C 241.02985 219.06564 242.10936 217.12147 243.07031 215.00586 C 244.03126 212.89025 244.87314 210.60392 245.60938 208.13477 C 246.34561 205.66561 246.97634 203.01259 247.51367 200.16406 C 247.65503 199.4147 247.73847 198.53456 247.86719 197.75781 L 127.27734 126.36328 L 127.27734 240.28516 z" transform="matrix(0.91428571,0,0,0.90337852,11.22877,13.326403)" style="fill:#5c6cd9"/>
  <path d="M 8.1777344 54.167969 C 7.7961116 56.432521 7.4212734 58.708017 7.140625 61.214844 C 6.77636 64.468555 6.4924096 67.930522 6.2753906 71.615234 C 5.8413528 78.98466 5.6757812 87.241905 5.6757812 96.490234 L 5.6757812 155.74219 C 5.6757812 164.99048 5.8413528 173.24778 6.2753906 180.61719 C 6.4924096 184.30189 6.77636 187.76387 7.140625 191.01758 C 7.3779469 193.1374 7.7087041 195.03064 8.0175781 196.97656 L 128.72266 125.52344 L 8.1777344 54.167969 z" transform="matrix(0.91428571,0,0,0.90337852,11.22877,13.326403)" style="fill:#7c9446"/>
  <path d="M 247.93555 54.939453 C 247.78481 54.006271 247.68234 52.962491 247.51367 52.068359 C 246.97634 49.219832 246.34561 46.566815 245.60938 44.097656 C 244.87314 41.628497 244.03126 39.34217 243.07031 37.226562 C 242.10936 35.110955 241.02985 33.166779 239.81836 31.378906 C 238.60687 29.591034 237.26325 27.960563 235.77539 26.474609 C 234.28753 24.988656 232.65529 23.647352 230.86523 22.4375 C 229.07518 21.227648 227.12784 20.149019 225.00977 19.189453 C 222.8917 18.229887 220.60277 17.389394 218.13086 16.654297 C 215.65895 15.9192 213.00392 15.288398 210.15234 14.751953 C 207.30077 14.215508 204.25316 13.771812 200.99609 13.408203 C 197.73903 13.044594 194.27236 12.761511 190.58398 12.544922 C 183.20722 12.111743 174.94251 11.947266 165.68555 11.947266 L 128.72266 11.947266 L 128.72266 125.52344 L 247.93555 54.939453 z" transform="matrix(0.91428571,0,0,0.90337852,11.22877,13.326403)" style="fill:#bb53e2"/>
  <path d="M 128.72266 11.947266 L 90.314453 11.947266 C 81.057489 11.947266 72.792776 12.111743 65.416016 12.544922 C 61.727635 12.761511 58.260972 13.044594 55.003906 13.408203 C 51.74684 13.771812 48.699233 14.215508 45.847656 14.751953 C 42.99608 15.288398 40.341052 15.9192 37.869141 16.654297 C 35.39723 17.389394 33.108304 18.229887 30.990234 19.189453 C 28.872165 20.149019 26.924819 21.227648 25.134766 22.4375 C 23.344712 23.647352 21.71247 24.988656 20.224609 26.474609 C 18.736749 27.960563 17.393134 29.591034 16.181641 31.378906 C 14.970148 33.166779 13.890637 35.110955 12.929688 37.226562 C 11.968738 39.34217 11.126855 41.628497 10.390625 44.097656 C 9.6543948 46.566815 9.0236635 49.219832 8.4863281 52.068359 C 8.3629835 52.722235 8.2914353 53.493267 8.1777344 54.167969 L 128.72266 125.52344 L 128.72266 11.947266 z" transform="matrix(0.91428571,0,0,0.90337852,11.22877,13.326403)" style="fill:#ffc540"/>
 </g>
 <path style="opacity:0.4;fill:none;stroke:url(#linearGradient1108);stroke-width:8;stroke-linecap:round;stroke-linejoin:round" d="M 361.9375,-212 C 507.2348,-212 528,-191.28677 528,-46.125 V 70.125 C 528,215.28618 507.2348,236 361.9375,236 H 214.0625 C 68.7652,236 48,215.28618 48,70.125 V -46.125 C 48,-191.28677 68.7652,-212 214.0625,-212 Z" clip-path="url(#clipPath1082-3-361)" transform="matrix(0.50968403,0,0,0.50968403,-18.788999,120)"/>
 <path d="M 61.845703,54.210938 A 17.948795,17.948795 0 0 0 45.050781,77.707031 L 78.380859,185.38867 a 17.948795,17.948795 0 0 0 34.326171,-0.125 L 128,134.55469 l 15.29297,50.70898 a 17.948795,17.948795 0 0 0 34.32617,0.125 L 210.94922,77.707031 A 17.948795,17.948795 0 1 0 176.66211,67.09375 l -15.96289,51.57227 -15.51758,-51.449223 a 17.948795,17.948795 0 0 0 -34.36328,0 L 95.300781,118.66602 79.337891,67.09375 A 17.948795,17.948795 0 0 0 61.845703,54.210938 Z" style="opacity:0.3;fill:#3f3f3f;filter:url(#filter1619)"/>
 <path style="fill:none;stroke:#5a5a5a;stroke-width:35.89400101;stroke-linecap:round;stroke-linejoin:round" d="M 62.194334,72.399503 95.524487,180.08152 128,72.399503 160.47553,180.08152 193.80567,72.399503 v 0"/>
</svg>
